X:59
T:Polska efter Maria Sohlberg (SvL Bohuslän 59)
R:Polska
O:Munkedal, Bohuslän
S:Maria Sohlberg
B:Svenska Låtar Bohuslän
M:3/4
L:1/8
K:Am
E|(3E^F^G AB c>A|(3Bcd e2 e2|e>f e>d ed|dB cA B^G|
(3E^F^G AB c>A|(3Bcd e2 e2|e>f e>d ed|1(3B^/GB [AA]3:|2(3B^/GB [AA]4]|
|:(3cBc e2 cz/c/|(3dcd e2 c>c|d^/f ec A^/c|(3B^/GB AB cd|
(3cBc e2 cz/c/|(3dcd e2 c>c|d^/f ec A^/c|1(3B^/GB [AA]4:|2(3B^/GB [AA]3]|

